!!!!SEGMENT: pl-wtm--r-1457_stefani-jozef--powstancie-swiatlosci-syny.krn
!!!cenid: 18xx:2175
!!!COM: Stefani, Józef
!!!COM-rismID: pe30024097
!!!CDT: 1800/04/16-1876/03/19
!!!CNT: Polish
!!!OTL: Powstańcie światłości syny
!!!PDT:
!!!AGN:
!!!SMS-siglum: PL-Wtm
!!!SMS-shelfmark: R 1457
!!!SMS-shelfwork: W
!!!SMS-variant:
!!!SMS-altvar:
!!!NIFC-rismSourceID: 1001120704
!!!NIFC-islandoraID: pl-wtm:25846
!!!URL-pdf-islandora: https://repozytorium.nifc.pl/islandora/object/pl-wtm%3A25846/datastream/PDF/view
!!!URL-scan: https://polish.musicsources.pl/pl/lokalizacje/galeria/rekopisy/6272 @EN{Scan on Polish Music Sources Website} @PL{Skany w portalu Dziedzictwo Muzyki Polskiej w otwartym dostępie}
!!!ONB-nifc:
!!!AIN: 1 empty 1 organ 2 soprn 1 tenor
!!!key:
**kern	**kern	**kern	**dynam	**kern	**kern	**text	**kern	**text	**text	**dynam
*part5	*part5	*part4	*part4	*part3	*part2	*part2	*part1	*part1	*part1	*part1
*staff6	*staff5	*staff4	*	*staff3	*staff2	*staff2	*staff1	*staff1	*staff1	*
*Iorgan	*Iorgan	*Iempty	*	*Itenor	*Isoprn	*	*Isoprn	*	*	*
*I"[Organo]	*I"[Organo]	*I"Basſy	*	*I"Tenory	*I"Soprany [2]	*	*I"[Soprany 1]	*	*	*
*clefF4	*clefG2	*clefF4	*	*clefC4	*clefG2	*	*clefG2	*	*	*
*k[b-e-a-]	*k[b-e-a-]	*k[b-e-a-]	*	*k[b-e-a-]	*k[b-e-a-]	*	*k[b-e-a-]	*	*	*
*E-:	*E-:	*E-:	*	*E-:	*E-:	*	*E-:	*	*	*
*M3/4	*M3/4	*M3/4	*	*M3/4	*M3/4	*	*M3/4	*	*	*
=1	=1	=1	=1	=1	=1	=1	=1	=1	=1	=1
*^	*	*	*	*	*	*	*	*	*	*
*all\right	*all\right	*all\right	*	*all\right	*all\right	*all\right	*	*all\right	*	*	*
*2\right	*2\right	*2\right	*	*2\right	*2\right	*2\right	*	*2\right	*	*	*
!	!	!	!	!	!	!	!	!LO:TX:a:i:t=Andante.	!	!	!
8BB-/L	4BB-\	4b- 4f 4d/	2.ryy	.	2.ryy	2.ryy	.	4r	.	.	.
8B-/J	.	.	.	.	.	.	.	.	.	.	.
8BB-/L	4BB-\	4cc 4an 4g-X 4e-/	.	.	.	.	.	4r	.	.	.
8An/J	.	.	.	.	.	.	.	.	.	.	.
8BB-/L	4BB-\	4dd 4b- 4f/	.	.	.	.	.	4b-\	Po-	.	.
8A-X/J	.	.	.	.	.	.	.	.	.	.	.
*v	*v	*	*	*	*	*	*	*	*	*	*
=2	=2	=2	=2	=2	=2	=2	=2	=2	=2	=2
*tremolo	*tremolo	*	*	*	*	*	*	*	*	*
!	!LO:TX:b:t=....	!	!	!	!	!	!	!	!	!
8GL 8E-\	(<8ee-L 8g 8e-'/	2.ryy	.	2.ryy	2.ryy	.	2ee-\	-wstań-	.	.
8G 8E-\	8ee- 8g 8e-'/	.	.	.	.	.	.	.	.	.
8G 8E-\	8ee- 8g 8e-'/	.	.	.	.	.	.	.	.	.
8GJ 8E-\	8ee-J 8g 8e-'/	.	.	.	.	.	.	.	.	.
*Xtremolo	*Xtremolo	*	*	*	*	*	*	*	*	*
8B-L 8E-\	8gL 8e-'/	.	.	.	.	.	4g/	-ćie	.	.
8B-J 8E-\	8gJ 8e-'/)	.	.	.	.	.	.	.	.	.
=3	=3	=3	=3	=3	=3	=3	=3	=3	=3	=3
*^	*^	*	*	*	*	*	*	*	*	*
*	*tremolo	*	*tremolo	*	*	*	*	*	*	*	*	*
8c/L	8E-\L	8a-/L	8e-\L	2.ryy	.	2.ryy	2.ryy	.	(<16b-/LL	świa-	.	.
.	.	.	.	.	.	.	.	.	16a-/	.	.	.
8c/J	8E-\	8a-/J	8e-\	.	.	.	.	.	16g/	.	.	.
.	.	.	.	.	.	.	.	.	16a-/JJ)	.	.	.
8G/L	8E-\	8b-/L	8e-\	.	.	.	.	.	4b-\	-tło-	.	.
8G/J	8E-\	8b-/J	8e-\	.	.	.	.	.	.	.	.	.
8A-/L	8E-\	8cc/L	8e-\	.	.	.	.	.	4cc\	-ści	.	.
8A-/J	8E-\J	8cc/J	8e-\J	.	.	.	.	.	.	.	.	.
*	*Xtremolo	*	*Xtremolo	*	*	*	*	*	*	*	*	*
*	*	*v	*v	*	*	*	*	*	*	*	*	*
=4	=4	=4	=4	=4	=4	=4	=4	=4	=4	=4	=4
*tremolo	*tremolo	*tremolo	*	*	*	*	*	*	*	*	*
8G/L	8E-\L	8b-L 8e-/	2.ryy	.	2.ryy	2.ryy	.	2.b-\	Sy-	.	.
8G/	8E-\	8b- 8e-/	.	.	.	.	.	.	.	.	.
8G/	8E-\	8b- 8e-/	.	.	.	.	.	.	.	.	.
8G/	8E-\	8b- 8e-/	.	.	.	.	.	.	.	.	.
8G/	8E-\	8b- 8e-/	.	.	.	.	.	.	.	.	.
8G/J	8E-\J	8b-J 8e-/	.	.	.	.	.	.	.	.	.
*v	*v	*	*	*	*	*	*	*	*	*	*
=5	=5	=5	=5	=5	=5	=5	=5	=5	=5	=5
8B-L 8E-\	8gL 8e-/	2.ryy	.	2.ryy	2.ryy	.	2g/	-ny	.	.
8B- 8E-\	8g 8e-/	.	.	.	.	.	.	.	.	.
8B- 8E-\	8g 8e-/	.	.	.	.	.	.	.	.	.
8B- 8E-\	8g 8e-/	.	.	.	.	.	.	.	.	.
8B- 8E-\	8g 8e-/	.	.	.	.	.	4g/	Po-	.	.
8B-J 8E-\	8gJ 8e-/	.	.	.	.	.	.	.	.	.
*	*Xtremolo	*	*	*	*	*	*	*	*	*
!!LO:LB:g=original
=6	=6	=6	=6	=6	=6	=6	=6	=6	=6	=6
*	*^	*	*	*	*	*	*	*	*	*
8B-L 8BB-\	2f/	4e-\	2.ryy	.	2.ryy	2.ryy	.	2f/	-kor-	.	.
8B- 8BB-\	.	.	.	.	.	.	.	.	.	.	.
8B- 8BB-\	.	8d\L	.	.	.	.	.	.	.	.	.
8B- 8BB-\	.	8c\J	.	.	.	.	.	.	.	.	.
8B- 8BB-\	4f/	4d\	.	.	.	.	.	4f/	-nem	.	.
8B-J 8BB-\	.	.	.	.	.	.	.	.	.	.	.
*	*v	*v	*	*	*	*	*	*	*	*	*
=7	=7	=7	=7	=7	=7	=7	=7	=7	=7	=7
*^	*	*	*	*	*	*	*	*	*	*
*	*	*tremolo	*	*	*	*	*	*	*	*	*
8B-L 8E-\	2ryy	8gL 8e-/	2.ryy	.	2.ryy	2.ryy	.	2g/	czu-	.	.
8B- 8E-\	.	8g 8e-/	.	.	.	.	.	.	.	.	.
8B- 8E-\	.	8g 8e-/	.	.	.	.	.	.	.	.	.
8B-J 8E-\	.	8gJ 8e-/	.	.	.	.	.	.	.	.	.
*Xtremolo	*	*Xtremolo	*	*	*	*	*	*	*	*	*
4G/	8.BBn\L	8.fL 8.d/	.	.	.	.	.	8.f/	-ćiem	.	.
.	16C\Jk	16e-Jk 16c/	.	.	.	.	.	16e-/	prze-	.	.
*v	*v	*	*	*	*	*	*	*	*	*	*
=8	=8	=8	=8	=8	=8	=8	=8	=8	=8	=8
*tremolo	*tremolo	*	*	*	*	*	*	*	*	*
8B-L 8F 8BB-\	8fL 8d/	2.ryy	.	2.ryy	2.ryy	.	(>4.b-\	-ię-	.	.
8B- 8F 8BB-\	8f 8d/	.	.	.	.	.	.	.	.	.
8B- 8F 8BB-\	8f 8d/	.	.	.	.	.	.	.	.	.
8B- 8F 8BB-\	8f 8d/	.	.	.	.	.	16cc\LL	.	.	.
.	.	.	.	.	.	.	16b-\JJ	.	.	.
8B- 8F 8BB-\	8f 8d/	.	.	.	.	.	16an\LL	.	.	.
.	.	.	.	.	.	.	16b-\	.	.	.
8B-J 8F 8BB-\	8fJ 8d/	.	.	.	.	.	16cc\	.	.	.
.	.	.	.	.	.	.	16b-\JJ)	.	.	.
*Xtremolo	*Xtremolo	*	*	*	*	*	*	*	*	*
=9	=9	=9	=9	=9	=9	=9	=9	=9	=9	=9
*^	*	*	*	*	*	*	*	*	*	*
8B- 8F 8BB-\	4ryy	8f 8d/	2.ryy	.	2.ryy	2.ryy	.	4f/	-te	.	.
16r	.	16r	.	.	.	.	.	.	.	.	.
16B- 16BB-\	.	16b- 16f 16d/	.	.	.	.	.	.	.	.	.
8BB-/L	4BB-\	4cc 4an 4g-X 4e-/	.	.	.	.	.	4r	.	.	.
8An/J	.	.	.	.	.	.	.	.	.	.	.
8BB-/L	4BB-\	4dd 4b- 4f/	.	.	.	.	.	4b-\	Pan	.	.
8A-X/J	.	.	.	.	.	.	.	.	.	.	.
*v	*v	*	*	*	*	*	*	*	*	*	*
=10	=10	=10	=10	=10	=10	=10	=10	=10	=10	=10
*	*tremolo	*	*	*	*	*	*	*	*	*
4E- 4EE-/	8ee-L 8g 8e-/	2.ryy	.	2.ryy	2.ryy	.	2ee-\	z gór-	.	.
.	8ee- 8g 8e-/	.	.	.	.	.	.	.	.	.
4G 4GG/	8ee- 8g 8e-/	.	.	.	.	.	.	.	.	.
.	8ee-J 8g 8e-/	.	.	.	.	.	.	.	.	.
4c 4C\	8gL 8e-/	.	.	.	.	.	4g/	-nej	.	.
.	8gJ 8e-/	.	.	.	.	.	.	.	.	.
*	*Xtremolo	*	*	*	*	*	*	*	*	*
!!LO:LB:g=original
=11	=11	=11	=11	=11	=11	=11	=11	=11	=11	=11
4F 4FF/	8a-L 8e- 8c/	2.ryy	.	2.ryy	2.ryy	.	(<16b-/LL	Nie-	.	.
.	.	.	.	.	.	.	16a-/	.	.	.
.	8a-J 8e- 8c/	.	.	.	.	.	16g/	.	.	.
.	.	.	.	.	.	.	16a-/JJ)	.	.	.
4G 4GG/	8r	.	.	.	.	.	4b-/	-ba	.	.
.	8b- 8e-/	.	.	.	.	.	.	.	.	.
4A- 4AA-/	8r	.	.	.	.	.	4cc/	Kra-	.	.
.	8cc 8e-/	.	.	.	.	.	.	.	.	.
=12	=12	=12	=12	=12	=12	=12	=12	=12	=12	=12
*tremolo	*	*	*	*	*	*	*	*	*	*
8GL 8GG\	8r	2.ryy	.	2.ryy	2.ryy	.	2.b-/	-i-	.	.
8G 8GG\	8b- 8e-/	.	.	.	.	.	.	.	.	.
*	*tremolo	*	*	*	*	*	*	*	*	*
8G 8GG\	8b-L 8e-/	.	.	.	.	.	.	.	.	.
8G 8GG\	8b- 8e-/	.	.	.	.	.	.	.	.	.
8G 8GG\	8b- 8e-/	.	.	.	.	.	.	.	.	.
8GJ 8GG\	8b-J 8e-/	.	.	.	.	.	.	.	.	.
*Xtremolo	*Xtremolo	*	*	*	*	*	*	*	*	*
=13	=13	=13	=13	=13	=13	=13	=13	=13	=13	=13
2E- 2EE-/	8r	2.ryy	.	2.ryy	2.ryy	.	2g/	-ny	.	.
.	8g 8e- 8B-/	.	.	.	.	.	.	.	.	.
.	8gL 8e- 8B-/	.	.	.	.	.	.	.	.	.
.	8gJ 8e- 8B-/	.	.	.	.	.	.	.	.	.
4E- 4EE-/	8r	.	.	.	.	.	4an/	O-	.	.
.	8an 8f 8c/	.	.	.	.	.	.	.	.	.
=14	=14	=14	=14	=14	=14	=14	=14	=14	=14	=14
4D 4DD/	8r	2.ryy	.	2.ryy	2.ryy	.	(>4cc\	-gła-	.	.
.	8cc 8f/	.	.	.	.	.	.	.	.	.
4D 4DD/	8r	.	.	.	.	.	4.b-\)	.	.	.
.	8b- 8f/	.	.	.	.	.	.	.	.	.
4E- 4EE-/	8r	.	.	.	.	.	.	.	.	.
.	8g 8e-/	.	.	.	.	.	8g/	-sza	.	.
=15	=15	=15	=15	=15	=15	=15	=15	=15	=15	=15
4F 4FF/	8r	2.ryy	.	2.ryy	2.ryy	.	(<16g/LL	na-	.	.
.	.	.	.	.	.	.	16f/	.	.	.
.	8f 8d/	.	.	.	.	.	16en/	.	.	.
.	.	.	.	.	.	.	16f/JJ)	.	.	.
4F 4FF/	8r	.	.	.	.	.	4.dd\	-u-	.	.
.	8dd 8b- 8f/	.	.	.	.	.	.	.	.	.
4F 4FF/	8r	.	.	.	.	.	.	.	.	.
.	8an 8f 8e- 8c/	.	.	.	.	.	8an/	-ki	.	.
!!LO:LB:g=original
=16	=16	=16	=16	=16	=16	=16	=16	=16	=16	=16
*^	*	*	*	*	*	*	*	*	*	*
[>4BB-/	2.BB-\	2.cc 2.f 2.e-/	2.ryy	.	2.ryy	2.ryy	.	2.cc\	świę-	.	.
8BB-/L]	.	.	.	.	.	.	.	.	.	.	.
8E-/	.	.	.	.	.	.	.	.	.	.	.
8F/	.	.	.	.	.	.	.	.	.	.	.
8An/J	.	.	.	.	.	.	.	.	.	.	.
*v	*v	*	*	*	*	*	*	*	*	*	*
=17	=17	=17	=17	=17	=17	=17	=17	=17	=17	=17
[>4B- [>4BB-\	[>4b- [>4f [>4d/	2.ryy	.	2.ryy	2.ryy	.	2b-\	-te.	.	.
8.B-]L 8.BB-\]	8.b-]L 8.f] 8.d/]	.	.	.	.	.	.	.	.	.
16B-K 16BB-\	16b-K 16f 16d/	.	.	.	.	.	.	.	.	.
8.An 8.AAn\	8.cc 8.g-X 8.e-/	.	.	.	.	.	8.r	.	.	.
16A-XJk 16AA-X\	16ddJk 16b- 16f/	.	.	.	.	.	16b-\	U-	.	.
=18	=18	=18	=18	=18	=18	=18	=18	=18	=18	=18
*tremolo	*tremolo	*	*	*	*	*	*	*	*	*
8GL 8E-\	8ee-L 8g 8e-/	2.ryy	.	2.ryy	2.ryy	.	2ee-\	-znay-	.	.
8G 8E-\	8ee- 8g 8e-/	.	.	.	.	.	.	.	.	.
8G 8E-\	8ee- 8g 8e-/	.	.	.	.	.	.	.	.	.
8GJ 8E-\	8ee-J 8g 8e-/	.	.	.	.	.	.	.	.	.
*Xtremolo	*Xtremolo	*	*	*	*	*	*	*	*	*
8B-L 8E-\	8gL 8e-/	.	.	.	.	.	4g/	-ćie	.	.
8B-J 8E-\	8gJ 8e-/	.	.	.	.	.	.	.	.	.
=19	=19	=19	=19	=19	=19	=19	=19	=19	=19	=19
*^	*	*	*	*	*	*	*	*	*	*
*	*tremolo	*	*	*	*	*	*	*	*	*	*
8c/L	8E-\L	8a-L 8e-/	2.ryy	.	2.ryy	2.ryy	.	(<16b-/LL	pra-	.	.
.	.	.	.	.	.	.	.	16a-/	.	.	.
8c/J	8E-\	8a-J 8e-/	.	.	.	.	.	16g/	.	.	.
.	.	.	.	.	.	.	.	16a-/JJ)	.	.	.
8G/L	8E-\	8b-L 8e-/	.	.	.	.	.	4b-/	-wdę	.	.
8G/J	8E-\	8b-J 8e-/	.	.	.	.	.	.	.	.	.
8A-/L	8E-\	8ccL 8e-/	.	.	.	.	.	4cc/	w tem	.	.
8A-/J	8E-\J	8ccJ 8e-/	.	.	.	.	.	.	.	.	.
=20	=20	=20	=20	=20	=20	=20	=20	=20	=20	=20	=20
*	*	*tremolo	*	*	*	*	*	*	*	*	*
8G/L	8E-\L	8b-L 8e-/	2.ryy	.	2.ryy	2.ryy	.	2.b-/	sło-	.	.
8G/	8E-\	8b- 8e-/	.	.	.	.	.	.	.	.	.
8G/	8E-\	8b- 8e-/	.	.	.	.	.	.	.	.	.
8G/	8E-\	8b- 8e-/	.	.	.	.	.	.	.	.	.
8G/	8E-\	8b- 8e-/	.	.	.	.	.	.	.	.	.
8G/J	8E-\J	8b-J 8e-/	.	.	.	.	.	.	.	.	.
*v	*v	*	*	*	*	*	*	*	*	*	*
!!LO:PB:g=original
=21	=21	=21	=21	=21	=21	=21	=21	=21	=21	=21
8GL 8E-\	8gL 8e-/	2.ryy	.	2.ryy	2.ryy	.	2g/	-wie	.	.
8G 8E-\	8g 8e-/	.	.	.	.	.	.	.	.	.
8G 8E-\	8g 8e-/	.	.	.	.	.	.	.	.	.
8GJ 8E-\	8g 8e-/	.	.	.	.	.	.	.	.	.
*Xtremolo	*	*	*	*	*	*	*	*	*	*
8B-L 8E-\	8g 8e-/	.	.	.	.	.	4g/	My	.	.
8B-J 8E-\	8gJ 8e-/	.	.	.	.	.	.	.	.	.
*	*Xtremolo	*	*	*	*	*	*	*	*	*
=22	=22	=22	=22	=22	=22	=22	=22	=22	=22	=22
*	*^	*	*	*	*	*	*	*	*	*
*tremolo	*	*	*	*	*	*	*	*	*	*	*
8B-L 8BB-\	2f/	4e-\	2.ryy	.	2.ryy	2.ryy	.	2f/	wszy-	.	.
8B- 8BB-\	.	.	.	.	.	.	.	.	.	.	.
8B- 8BB-\	.	8d\L	.	.	.	.	.	.	.	.	.
8B- 8BB-\	.	8c\J	.	.	.	.	.	.	.	.	.
8B- 8BB-\	4f/	4d\	.	.	.	.	.	4f/	-scy	.	.
8B-J 8BB-\	.	.	.	.	.	.	.	.	.	.	.
*	*v	*v	*	*	*	*	*	*	*	*	*
=23	=23	=23	=23	=23	=23	=23	=23	=23	=23	=23
*^	*	*	*	*	*	*	*	*	*	*
*	*	*tremolo	*	*	*	*	*	*	*	*	*
8B-L 8E-\	2ryy	8gL 8e-/	2.ryy	.	2.ryy	2.ryy	.	2g/	Bra-	.	.
8B- 8E-\	.	8g 8e-/	.	.	.	.	.	.	.	.	.
8B- 8E-\	.	8g 8e-/	.	.	.	.	.	.	.	.	.
8B-J 8E-\	.	8gJ 8e-/	.	.	.	.	.	.	.	.	.
*Xtremolo	*	*Xtremolo	*	*	*	*	*	*	*	*	*
8.G/L	8.BBn\L	8.fL 8.d/	.	.	.	.	.	8.f/	-ćia	.	.
16G/Jk	16C\Jk	16e-Jk 16c/	.	.	.	.	.	16e-/	ie-	.	.
*v	*v	*	*	*	*	*	*	*	*	*	*
=24	=24	=24	=24	=24	=24	=24	=24	=24	=24	=24
*tremolo	*tremolo	*	*	*	*	*	*	*	*	*
8B-L 8F 8BB-\	8fL 8d/	2.ryy	.	2.ryy	2.ryy	.	(>4.b-\	-ste-	.	.
8B- 8F 8BB-\	8f 8d/	.	.	.	.	.	.	.	.	.
8B- 8F 8BB-\	8f 8d/	.	.	.	.	.	.	.	.	.
8B- 8F 8BB-\	8f 8d/	.	.	.	.	.	16cc\LL	.	.	.
.	.	.	.	.	.	.	16b-\JJ	.	.	.
8B- 8F 8BB-\	8f 8d/	.	.	.	.	.	16an\LL	.	.	.
.	.	.	.	.	.	.	16b-\	.	.	.
8B-J 8F 8BB-\	8fJ 8d/	.	.	.	.	.	16cc\	.	.	.
.	.	.	.	.	.	.	16b-\JJ)	.	.	.
*Xtremolo	*Xtremolo	*	*	*	*	*	*	*	*	*
=25	=25	=25	=25	=25	=25	=25	=25	=25	=25	=25
8B- 8F 8BB-\	8f 8d/	2.ryy	.	2.ryy	2.ryy	.	4f/	-śmy	.	.
16r	16r	.	.	.	.	.	.	.	.	.
16B- 16BB-\	16b- 16f 16d/	.	.	.	.	.	.	.	.	.
8BB-/L	4cc 4an 4g-X 4e-/	.	.	.	.	.	4r	.	.	.
8An/J	.	.	.	.	.	.	.	.	.	.
8BB-/L	4dd 4b- 4f/	.	.	.	.	.	4b-\	My	.	.
8A-X/J	.	.	.	.	.	.	.	.	.	.
!!LO:LB:g=original
=26	=26	=26	=26	=26	=26	=26	=26	=26	=26	=26
*	*tremolo	*	*	*	*	*	*	*	*	*
4E- 4EE-/	8ee-L 8g 8e-/	2.ryy	.	2.ryy	2.ryy	.	2ee-\	wszy-	.	.
.	8ee- 8g 8e-/	.	.	.	.	.	.	.	.	.
4G 4GG/	8ee- 8g 8e-/	.	.	.	.	.	.	.	.	.
.	8ee-J 8g 8e-/	.	.	.	.	.	.	.	.	.
*	*Xtremolo	*	*	*	*	*	*	*	*	*
4c 4C\	8gL 8e-/	.	.	.	.	.	4g/	-scy	.	.
.	8gJ 8e-/	.	.	.	.	.	.	.	.	.
=27	=27	=27	=27	=27	=27	=27	=27	=27	=27	=27
4F 4FF/	8a-L 8c/	2.ryy	.	2.ryy	2.ryy	.	(<16b-/LL	Je-	.	.
.	.	.	.	.	.	.	16a-/	.	.	.
.	8a-J 8c/	.	.	.	.	.	16g/	.	.	.
.	.	.	.	.	.	.	16a-/JJ)	.	.	.
4G 4GG/	8r	.	.	.	.	.	4b-\	-go	.	.
.	8b- 8e-/	.	.	.	.	.	.	.	.	.
4A-/ 4AA-/	8r	.	.	.	.	.	4cc\	Sy-	.	.
.	8cc 8e-/	.	.	.	.	.	.	.	.	.
=28	=28	=28	=28	=28	=28	=28	=28	=28	=28	=28
2.G 2.GG\	8r	2.ryy	.	2.ryy	2.ryy	.	2.b-\	-no-	.	.
.	8b- 8e-/	.	.	.	.	.	.	.	.	.
*	*tremolo	*	*	*	*	*	*	*	*	*
.	8b-L 8e-/	.	.	.	.	.	.	.	.	.
.	8b- 8e-/	.	.	.	.	.	.	.	.	.
.	8b- 8e-/	.	.	.	.	.	.	.	.	.
.	8b-J 8e-/	.	.	.	.	.	.	.	.	.
*	*Xtremolo	*	*	*	*	*	*	*	*	*
=29	=29	=29	=29	=29	=29	=29	=29	=29	=29	=29
2E- 2EE-/	8r	2.ryy	.	2.ryy	2.ryy	.	2g/	-wie	.	.
.	8g 8e- 8B-/	.	.	.	.	.	.	.	.	.
.	8gL 8e- 8B-/	.	.	.	.	.	.	.	.	.
.	8gJ 8e- 8B-/	.	.	.	.	.	.	.	.	.
4d-X 4E-\	8gL 8e-/	.	.	.	.	.	4g/	Mi-	.	.
.	8gJ 8e-/	.	.	.	.	.	.	.	.	.
=30	=30	=30	=30	=30	=30	=30	=30	=30	=30	=30
*^	*	*	*	*	*	*	*	*	*	*
4c/	2E-\	8b-L 8e-/	2.ryy	.	2.ryy	2.ryy	.	(<4b-/	-ło-	.	.
.	.	8b-J 8e-/	.	.	.	.	.	.	.	.	.
4c-X/	.	8a-L 8e-/	.	.	.	.	.	4.a-/)	.	.	.
.	.	8a-J 8e-/	.	.	.	.	.	.	.	.	.
4B-/	4E-\	8gL 8e-/	.	.	.	.	.	.	.	.	.
.	.	8gJ 8e-/	.	.	.	.	.	8g/	-ścią	.	.
*v	*v	*	*	*	*	*	*	*	*	*	*
!!LO:LB:g=original
=31	=31	=31	=31	=31	=31	=31	=31	=31	=31	=31
*tremolo	*tremolo	*	*	*	*	*	*	*	*	*
8A-L 8AA-\	8ccL 8a- 8e-/	2.ryy	.	2.ryy	2.ryy	.	4cc\	chwa-	.	.
8A- 8AA-\	8cc 8a- 8e-/	.	.	.	.	.	.	.	.	.
8A- 8AA-\	8cc 8a- 8e-/	.	.	.	.	.	4cc\	-łę	.	.
8A-J 8AA-\	8ccJ 8a- 8e-/	.	.	.	.	.	.	.	.	.
*Xtremolo	*Xtremolo	*	*	*	*	*	*	*	*	*
8B-L 8BB-\	8ddL 8a- 8f/	.	.	.	.	.	4dd\	mu	.	.
8BnJ 8BBn\	8ddJ 8a- 8f/	.	.	.	.	.	.	.	.	.
=32	=32	=32	=32	=32	=32	=32	=32	=32	=32	=32
*tremolo	*tremolo	*	*	*	*	*	*	*	*	*
8cL 8C\	8ee-L 8g 8e-/	2.ryy	.	2.ryy	2.ryy	.	2.ee-\	wznie-	.	.
8c 8C\	8ee- 8g 8e-/	.	.	.	.	.	.	.	.	.
8c 8C\	8ee- 8g 8e-/	.	.	.	.	.	.	.	.	.
8c 8C\	8ee- 8g 8e-/	.	.	.	.	.	.	.	.	.
8c 8C\	8ee- 8g 8e-/	.	.	.	.	.	.	.	.	.
8cJ 8C\	8ee-J 8g 8e-/	.	.	.	.	.	.	.	.	.
=33	=33	=33	=33	=33	=33	=33	=33	=33	=33	=33
8c-XL 8C-X\	8anL 8f 8e-/	2.ryy	.	2.ryy	2.ryy	.	2an/	-śmy	.	.
8c- 8C-\	8a 8f 8e-/	.	.	.	.	.	.	.	.	.
8c- 8C-\	8a 8f 8e-/	.	.	.	.	.	.	.	.	.
8c- 8C-\	8a 8f 8e-/	.	.	.	.	.	.	.	.	.
8c- 8C-\	8a 8f 8e-/	.	.	.	.	.	4a/	Mi-	.	.
8c-J 8C-\	8aJ 8f 8e-/	.	.	.	.	.	.	.	.	.
*Xtremolo	*Xtremolo	*	*	*	*	*	*	*	*	*
=34	=34	=34	=34	=34	=34	=34	=34	=34	=34	=34
8B- 8BB-\	8r	2.ryy	.	2.ryy	2.ryy	.	(>4cc\	-ło-	.	.
8r	8b- 8g 8e-/	.	.	.	.	.	.	.	.	.
8B- 8BB-\	8r	.	.	.	.	.	16cc\L	.	.	.
.	.	.	.	.	.	.	16b-\)J	.	.	.
8r	8b- 8g 8e-/	.	.	.	.	.	(>16g\L	-ścią	.	.
.	.	.	.	.	.	.	16e-\J)	.	.	.
8B- 8BB-\	8r	.	.	.	.	.	(>16ff\L	[[ścią]]	Chwa-	.
.	.	.	.	.	.	.	16ee-\)J	.	.	.
8r	8g 8e-/	.	.	.	.	.	16b-\	.	-łę	.
.	.	.	.	.	.	.	16g\	.	Mu	.
!!LO:LB:g=original
=35	=35	=35	=35	=35	=35	=35	=35	=35	=35	=35
[>4B- [>4BB-\	(<16fLL 16d/	2.ryy	.	2.ryy	2.ryy	.	(>(<16f/LL	[[chwa-	wznie-	.
.	16g 16e-/	.	.	.	.	.	16g/)	-łę	.	.
.	16a- 16f/	.	.	.	.	.	16a-/	mu	.	.
.	16anJJ 16f#X/)	.	.	.	.	.	16an/JJ	wznie]]	.	.
8B-] 8BB-\]	8b- 8g/	.	.	.	.	.	8b-\	.	.	.
4B- 4BB-\	4cc 4a-X/	.	.	.	.	.	4cc\	.	.	.
8B- 8BB-\	8dd 8a- 8f#/	.	.	.	.	.	8dd\	.	.	.
=	=	=	=	=	=	=	=	=	=	=
4B- 4E-\	4ee- 4g 4e-/	4ryy	.	4ryy	4ryy	.	4ee-\)	.	-śmy.	.
8r	8r	8ryy	.	8ryy	8ryy	.	8r	.	.	.
!LO:TX:a:i:t=V&colon; S&colon;	!	!	!	!	!	!	!	!	!	!
!!LO:PB:g=original
=36||	=36||	=36||	=36||	=36||	=36||	=36||	=36||	=36||	=36||	=36||
!	!	!LO:TX:a:i:t=Basſy	!	!LO:TX:a:i:t=Tenory	!LO:TX:a:i:t=Soprany	!	!	!	!	!
8B-L 8E-\	8b-L 8g/	8E-\	.	8B- 8G\	8b- 8g/	U-	4r	.	.	.
8B- 8BB-\	8a- 8f/	8BB-/	.	8A- 8F\	8a- 8f/	-znaj-	.	.	.	.
8B-J 8E-\	8gJ 8e-/	8E-\	.	8G 8E-\	8g 8e-/	-cie	8r	.	.	.
=37	=37	=37	=37	=37	=37	=37	=37	=37	=37	=37
*tremolo	*	*	*	*	*	*	*	*	*	*
8BB-\L	4f 4d/	4BB-/	.	4F 4D/	4f 4d/	pra-	4r	.	.	.
8B-\	.	.	.	.	.	.	.	.	.	.
8BB-\	4f 4d/	4BB-/	.	4F 4D/	4f 4d/	-wdę	8r	.	.	.
8B-\	.	.	.	.	.	.	8b-\	pra-	.	.
8BB-\	4a- 4f/	4BB-/	.	4A- 4F/	4a- 4f/	w tem	8cc\	-wdę	.	.
8B-\J	.	.	.	.	.	.	8dd\	w tem	.	.
*Xtremolo	*	*	*	*	*	*	*	*	*	*
=38	=38	=38	=38	=38	=38	=38	=38	=38	=38	=38
8E-\L	4.g 4.e-/	4E-\	.	4G 4E-/	4g 4e-/	sło-	(>16ff\LL	sło-	.	.
.	.	.	.	.	.	.	16ee-\	.	.	.
8B-\	.	.	.	.	.	.	16dd\	.	.	.
.	.	.	.	.	.	.	16ee-\JJ)	.	.	.
8E-\J	.	8E-\	.	8G 8E-/	8g 8e-/	-wie	4b-\	-wie	.	.
8B-L 8E-\	16b-LL 16g/	8E-\	.	(<16B-LL 16G/	(<16b-LL 16g/	My	.	.	.	.
.	32ccL 32a-/	.	.	32cL 32A-/	32ccL 32a-/	.	.	.	.	.
.	32b-JJJ 32g/	.	.	32B-JJJ 32G/)	32b-JJJ 32g/)	.	.	.	.	.
8B- 8BB-\	8a-L 8f/	8BB-/	.	8A- 8F/	8a- 8f/	wszy-	4r	.	.	.
8B-J 8E-\	8gJ 8e-/	8E-\	.	8G 8E-/	8g 8e-/	-scy	.	.	.	.
=39	=39	=39	=39	=39	=39	=39	=39	=39	=39	=39
*tremolo	*	*	*	*	*	*	*	*	*	*
8BB-\L	4f 4d/	4BB-/	.	4F 4D/	4f 4d/	Bra-	8.r	.	.	.
8B-\	.	.	.	.	.	.	.	.	.	.
.	.	.	.	.	.	.	16b-\	My	.	.
8BB-\	4f 4d/	4BB-/	.	4F 4D/	4f 4d/	-cia	4b-\	Bra-	.	.
8B-\	.	.	.	.	.	.	.	.	.	.
8BB-\	4a- 4f/	4BB-/	.	4A- 4F/	4a- 4f/	ie-	8.cc\	-ćia	.	.
8B-\J	.	.	.	.	.	.	.	.	.	.
.	.	.	.	.	.	.	16dd\	ie-	.	.
*Xtremolo	*	*	*	*	*	*	*	*	*	*
!!LO:LB:g=original
=40	=40	=40	=40	=40	=40	=40	=40	=40	=40	=40
8E-\L	4.g 4.e-/	4E-\	.	4G 4E-/	4g 4e-/	-ste-	(>16ff\LL	-ste-	.	.
.	.	.	.	.	.	.	16ee-\	.	.	.
8B-\	.	.	.	.	.	.	16gg\	.	.	.
.	.	.	.	.	.	.	16ee-\JJ)	.	.	.
8E-\J	.	8E-\	.	8G 8E-/	8g 8e-/	-śmy	8b-\	-śmy	.	.
!	!	!	!LO:DY:a:rj	!	!	!	!	!	!	!LO:DY:a:rj
8CL 8CC/	8ee-L 8cc 8g/	8C\	f	8c\	8ee- 8g\	My	8ee-\	My	.	f
8D 8DD/	8dd 8bn 8g 8f/	8D\	.	8Bn\	8dd 8g\	wsz-	8dd\	wszy-	.	.
8E-J 8EE-/	8ccJ 8g 8e-/	8E-\	.	8c\	8cc 8g\	-scy	8cc\	-scy	.	.
=41	=41	=41	=41	=41	=41	=41	=41	=41	=41	=41
*	*	*	*	*	*^	*	*	*	*	*
*tremolo	*	*	*	*	*	*	*	*	*	*	*
!LO:TX:t=P:problem=mixed beam	!	!	!	!	!	!	!	!	!	!	!
8FF/L	4b- 4f 4d/	4F\	.	4d\	4b-/	4f\	Je-	4b-\	Je-	.	.
8F\	.	.	.	.	.	.	.	.	.	.	.
8FF/	4b- 4f 4d/	4F\	.	4d\	4b-/	4f\	-go	4b-\	-go	.	.
8F\J	.	.	.	.	.	.	.	.	.	.	.
*Xtremolo	*	*	*	*	*	*	*	*	*	*	*
!LO:TX:t=P:problem=mixed beam	!	!	!	!	!	!	!	!	!	!	!
8AAn/L	4cc 4f/	4AAn/	.	4c\	4cc/	4f\	sy-	4cc\	sy-	.	.
8An\J	.	.	.	.	.	.	.	.	.	.	.
=42	=42	=42	=42	=42	=42	=42	=42	=42	=42	=42	=42
*	*^	*	*	*	*	*	*	*	*	*	*
8BB-\L	8.cc#X/L	4f\	4BB-/	.	4B-\	8.cc#X/L	4f\	-no-	(>8.cc#X\L	-no-	.	.
8B-\J	.	.	.	.	.	.	.	.	.	.	.	.
.	16dd/Jk	.	.	.	.	16dd/Jk	.	.	16dd\Jk)	.	.	.
8BB-/	8dd/	8f\	8BB-/	.	8B-\	8dd/	8f\	-wie	8dd\	-wie	.	.
8B-\L	8ddL 8b- 8f/	8ryy	8r	.	8r	8r	8ryy	.	(>16dd\LL	mi-	.	.
.	.	.	.	.	.	.	.	.	32ee-\L	.	.	.
.	.	.	.	.	.	.	.	.	32dd\JJJ)	.	.	.
8An\	8cc# 8f/	4ryy	4r	.	4r	4r	4ryy	.	8cc#\	-ło-	.	.
8A-X\J	8ddJ 8b- 8f/	.	.	.	.	.	.	.	8dd\	-ścią	.	.
*	*	*	*	*	*	*v	*v	*	*	*	*	*
!!LO:PB:g=original
=43	=43	=43	=43	=43	=43	=43	=43	=43	=43	=43	=43
2G\	(>4.ff/	2b-\	2.r	.	2.r	2.r	.	(>4.ff\	Chwa-	.	.
.	8ee-/L	.	.	.	.	.	.	8ee-\)	.	.	.
4A-\	8cc/)	8a-\L	.	.	.	.	.	8cc\	-łę	.	.
.	8a-/J	8f\J	.	.	.	.	.	8a-\	mu	.	.
=44	=44	=44	=44	=44	=44	=44	=44	=44	=44	=44	=44
2B-\	4g/	2e-\	2.r	.	2.r	2.r	.	4g/	wznie-	.	.
.	4f/	.	.	.	.	.	.	(>16f/LL	.	.	.
.	.	.	.	.	.	.	.	16g/	.	.	.
.	.	.	.	.	.	.	.	16a-/	.	.	.
.	.	.	.	.	.	.	.	16b-/JJ	.	.	.
4BB-/	8.cc/L	4d\	.	.	.	.	.	8.cc/L	.	.	.
.	16b-/Jk	.	.	.	.	.	.	16b-/Jk)	.	.	.
*	*v	*v	*	*	*	*	*	*	*	*	*
=45	=45	=45	=45	=45	=45	=45	=45	=45	=45	=45
*	*	*	*	*	*^	*	*	*	*	*
4.E-\	4.g 4.e-/	4r	.	4r	4r	4ryy	.	4.g/	-śmy	.	.
.	.	8r	.	8r	8r	8ryy	.	.	.	.	.
8B-L 8BB-\	8ddL 8b- 8f/	8B-\	.	8B-\	16dd/LL	8f\	Mi-	16dd\LL	Mi-	.	.
.	.	.	.	.	32ee-/L	.	.	32ee-\L	.	.	.
!	!	!	!	!	!	!	!	!	!	!	!LO:HP:a
.	.	.	.	.	32dd/JJJ	.	.	32dd\JJJ	.	.	<
8An 8AAn\	8cc 8f/	8An\	.	8c\	8cc/	8f\	-ło-	8cc\	-ło-	.	.
8A-XJ 8AA-X\	8ddJ 8b- 8f/	8A-X\	.	8B-\	8dd 8b-/	8f\	-ścią	8dd\	-ścią	.	[[
!!LO:LB:g=original
=46	=46	=46	=46	=46	=46	=46	=46	=46	=46	=46	=46
*	*^	*	*	*	*	*	*	*	*	*	*
*	*	*	*	*	*2\right	*	*2\right	*	*	*	*	*
!	!	!	!	!	!	!	!	!	!	!	!	!LO:HP:a
!	!	!	!	!	!	!	!LO:TX:a:t=P:problem=nuta poprawiona ołówkiem z 2f na 2e-	!	!	!	!	!
2G 2GG/	4.ff/	2b-\	2G\	.	2B-\	2b-/	2e-\	chwa-	4.ff\	chwa-	.	>
.	8ee-/L	.	.	.	.	.	.	.	8ee-\	.	.	.
4A- 4AA-/	8cc/	8a-\L	8A-\	.	8A-\	8a-/	8f\	-łę	8cc\	-łę	.	.
.	8a-/J	8f\J	8A-\	.	8c\	8f/	8f\	Mu	8a-\	mu	.	]
=47	=47	=47	=47	=47	=47	=47	=47	=47	=47	=47	=47	=47
!	!	!	!	!LO:DY:a:rj	!	!	!	!	!	!	!	!LO:DY:a:rj
2B- 2BB-\	4g/	2e-\	(>2B-\	p	2.B-\	(>4g/	2e-\	wznie-	(>4g/	wznie-	.	p
.	4f/	.	.	.	.	4f/	.	.	4f/	.	.	.
4B- 4BB-\	4b-/	4d\	4BB-/)	.	.	4b- 4d/)	4d\	.	4b-/)	.	.	.
*	*v	*v	*	*	*	*v	*v	*	*	*	*	*
=48	=48	=48	=48	=48	=48	=48	=48	=48	=48	=48
4E-\	4e-/	4E-\	.	4B-\	4e-/	-śmy	4e-/	-śmy	.	.
4r	4r	4r	.	4r	4r	.	4r	.	.	.
8.r	8.r	8.r	.	8.r	8.r	.	8.r	.	.	.
!	!	!	!LO:DY:a:rj	!	!	!	!	!	!	!LO:DY:a:rj
16B- 16F 16BB-\	16dd 16b- 16a- 16f/	16BB-/	f	16B-\	16a- 16f/	o	16dd\	o	.	f
=49	=49	=49	=49	=49	=49	=49	=49	=49	=49	=49
[>2.B- [>2.F [>2.BB-\	[>2.dd [>2.b- [>2.a- [<2.f/	[>2.BB-/	.	[>2.B-\	2.a- 2.f/	Bo-	[>2.dd\	Bo-	.	.
=50	=50	=50	=50	=50	=50	=50	=50	=50	=50	=50
4B-] 4F] 4BB-\]	4dd] 4b-] 4a-] 4f/]	2.BB-/]	.	2.B-\]	(>2.a- 2.f/	.	(>2.dd\]	.	.	.
4B- 4F 4BB-\	4dd 4b- 4a- 4f/	.	.	.	.	.	.	.	.	.
4B- 4F 4BB-\	4dd 4b- 4a- 4f/	.	.	.	.	.	.	.	.	.
.	.	.	.	.	16qqg 16qqe-/)	.	16qqee-/)	.	.	.
!LO:TX:a:i:t=V&colon; S&colon;	!	!	!	!	!	!	!	!	!	!
!!LO:PB:g=original
=51	=51	=51	=51	=51	=51	=51	=51	=51	=51	=51
*^	*	*	*	*	*	*	*	*	*	*
4E-/	16E-\LL	16ee-LL 16b- 16g 16e-\	4E-\	.	4B-\	4g 4e-/	-że.	4ee-\	-że.	.	.
.	16B-\	16gg\	.	.	.	.	.	.	.	.	.
.	16G\	16ee-\	.	.	.	.	.	.	.	.	.
.	16B-\JJ	16b-\JJ	.	.	.	.	.	.	.	.	.
*rep	*rep	*	*	*	*	*	*	*	*	*	*
4E-/	16E-\LL	16g\LL	4r	.	4r	4r	.	4r	.	.	.
.	16B-\	16ee-\	.	.	.	.	.	.	.	.	.
.	16G\	16b-\	.	.	.	.	.	.	.	.	.
.	16B-\JJ	16g\JJ	.	.	.	.	.	.	.	.	.
*Xrep	*Xrep	*	*	*	*	*	*	*	*	*	*
*rep	*rep	*	*	*	*	*	*	*	*	*	*
4E-/	16E-\LL	16e-/LL	4r	.	4r	4r	.	4r	.	.	.
.	16B-\	16b-/	.	.	.	.	.	.	.	.	.
.	16G\	16g/	.	.	.	.	.	.	.	.	.
.	16B-\JJ	16e-/JJ	.	.	.	.	.	.	.	.	.
*Xrep	*Xrep	*	*	*	*	*	*	*	*	*	*
=52	=52	=52	=52	=52	=52	=52	=52	=52	=52	=52	=52
4E-/	16E-\LL	16r	2.ryy	.	2.ryy	2.ryy	.	2.ryy	.	.	.
.	16d-X\	16gg\LL	.	.	.	.	.	.	.	.	.
.	16B-\	16ee-\	.	.	.	.	.	.	.	.	.
.	16d-\JJ	16b-\JJ	.	.	.	.	.	.	.	.	.
*rep	*rep	*	*	*	*	*	*	*	*	*	*
4E-/	16E-\LL	16g\LL	.	.	.	.	.	.	.	.	.
.	16d-\	16ee-\	.	.	.	.	.	.	.	.	.
.	16B-\	16b-\	.	.	.	.	.	.	.	.	.
.	16d-\JJ	16g\JJ	.	.	.	.	.	.	.	.	.
*Xrep	*Xrep	*	*	*	*	*	*	*	*	*	*
*rep	*rep	*	*	*	*	*	*	*	*	*	*
4E-/	16E-\LL	16e-/LL	.	.	.	.	.	.	.	.	.
.	16d-\	16b-/	.	.	.	.	.	.	.	.	.
.	16B-\	16g/	.	.	.	.	.	.	.	.	.
.	16d-\JJ	16e-/JJ	.	.	.	.	.	.	.	.	.
*Xrep	*Xrep	*	*	*	*	*	*	*	*	*	*
=53	=53	=53	=53	=53	=53	=53	=53	=53	=53	=53	=53
4E-/	16E-\LL	16r	2.ryy	.	2.ryy	2.ryy	.	2.ryy	.	.	.
.	16c\	16aa-\LL	.	.	.	.	.	.	.	.	.
.	16A-\	16ee-\	.	.	.	.	.	.	.	.	.
.	16c\JJ	16cc\JJ	.	.	.	.	.	.	.	.	.
*rep	*rep	*	*	*	*	*	*	*	*	*	*
4E-/	16E-\LL	16a-\LL	.	.	.	.	.	.	.	.	.
.	16c\	16ee-\	.	.	.	.	.	.	.	.	.
.	16A-\	16cc\	.	.	.	.	.	.	.	.	.
.	16c\JJ	16a-\JJ	.	.	.	.	.	.	.	.	.
*Xrep	*Xrep	*	*	*	*	*	*	*	*	*	*
*rep	*rep	*	*	*	*	*	*	*	*	*	*
4E-/	16E-\LL	16e-/LL	.	.	.	.	.	.	.	.	.
.	16c\	16cc/	.	.	.	.	.	.	.	.	.
.	16A-\	16a-/	.	.	.	.	.	.	.	.	.
.	16c\JJ	16e-/JJ	.	.	.	.	.	.	.	.	.
*Xrep	*Xrep	*	*	*	*	*	*	*	*	*	*
=54	=54	=54	=54	=54	=54	=54	=54	=54	=54	=54	=54
4E-/	16E-\LL	16r	2.ryy	.	2.ryy	2.ryy	.	2.ryy	.	.	.
.	16B-\	16bb-\LL	.	.	.	.	.	.	.	.	.
.	16A-\	16ff\	.	.	.	.	.	.	.	.	.
.	16B-\JJ	16dd\JJ	.	.	.	.	.	.	.	.	.
*rep	*rep	*	*	*	*	*	*	*	*	*	*
4E-/	16E-\LL	16cc\LL	.	.	.	.	.	.	.	.	.
.	16B-\	16ff\	.	.	.	.	.	.	.	.	.
.	16A-\	16dd\	.	.	.	.	.	.	.	.	.
.	16B-\JJ	16a-\JJ	.	.	.	.	.	.	.	.	.
*Xrep	*Xrep	*	*	*	*	*	*	*	*	*	*
4E-/	16E-\LL	16f/LL	.	.	.	.	.	.	.	.	.
.	16d\	16b-/	.	.	.	.	.	.	.	.	.
.	16B-\	16a-/	.	.	.	.	.	.	.	.	.
.	16d\JJ	16f/JJ	.	.	.	.	.	.	.	.	.
*v	*v	*	*	*	*	*	*	*	*	*	*
=55	=55	=55	=55	=55	=55	=55	=55	=55	=55	=55
4E-\	4e-/	2.ryy	.	2.ryy	2.ryy	.	2.ryy	.	.	.
4r	4r	.	.	.	.	.	.	.	.	.
4E- 4C-X 4AA- 4EE-/	4e- 4c-X 4A-/	.	.	.	.	.	.	.	.	.
=56	=56	=56	=56	=56	=56	=56	=56	=56	=56	=56
4E- 4BB- 4GG 4EE-/	4e- 4B- 4G/	2.ryy	.	2.ryy	2.ryy	.	2.ryy	.	.	.
4r	4r	.	.	.	.	.	.	.	.	.
4E- 4C-X 4AA- 4EE-/	4e- 4c-X 4A-/	.	.	.	.	.	.	.	.	.
=57	=57	=57	=57	=57	=57	=57	=57	=57	=57	=57
4E- 4BB- 4GG 4EE-/	[>2.e- [>2.B- [<2.G/	2.ryy	.	2.ryy	2.ryy	.	2.ryy	.	.	.
4BB-/	.	.	.	.	.	.	.	.	.	.
4GG/	.	.	.	.	.	.	.	.	.	.
=58	=58	=58	=58	=58	=58	=58	=58	=58	=58	=58
4E- 4EE-/	4e-] 4B-] 4G/]	2.ryy	.	2.ryy	2.ryy	.	2.ryy	.	.	.
4r	4r	.	.	.	.	.	.	.	.	.
4r	4r	.	.	.	.	.	.	.	.	.
==	==	==	==	==	==	==	==	==	==	==
*-	*-	*-	*-	*-	*-	*-	*-	*-	*-	*-
!!!system-decoration: {s1,s2,s3,s4}{(s5,s6)}
!!!RDF**kern: > = above
!!!RDF**kern: < = below
!!!EED: Antoni Szymański
!!!EEV: 2021-06-03
!!!ENC: Andrzej Gręziak
!!!END: 2021-05-17
!!!YEC: Copyright 2022 Narodowy Instytut Fryderyka Chopina (https://polishscores.org)
!!!YEM: Licence CC BY 4.0 (https://creativecommons.org/licenses/by/4.0)
